svg/color/xlm.svg

<svg width="64" height="65" viewBox="0 0 64 65" fill="none" xmlns="http://www.w3.org/2000/svg">
<rect y="0.303711" width="64" height="64" rx="32" fill="black"/>
<rect x="0.5" y="0.803711" width="63" height="63" rx="31.5" stroke="white" stroke-opacity="0.15"/>
<path d="M16.4331 34.2292C16.3438 33.5486 16.2989 32.863 16.2986 32.1765C16.3022 29.4377 17.0213 26.7474 18.3846 24.3719C19.7479 21.9965 21.7081 20.0185 24.0711 18.6338C26.4341 17.249 29.1178 16.5057 31.8565 16.4773C34.5952 16.4489 37.2937 17.1365 39.6849 18.472L43.2795 16.6401C40.4141 14.5603 37.0294 13.3132 33.4995 13.0368C29.9696 12.7603 26.432 13.4652 23.2777 15.0736C20.1234 16.6819 17.4752 19.1311 15.6257 22.1504C13.7763 25.1697 12.7977 28.6416 12.7981 32.1823C12.7981 32.6713 12.8167 33.1584 12.8538 33.6436C12.9058 34.3306 12.7534 35.0177 12.4158 35.6184C12.0782 36.2191 11.5705 36.7065 10.9566 37.0193L9.30715 37.8604V41.7834L54.6933 18.6563V14.7352L16.4331 34.2292Z" fill="white"/>
<path d="M54.6933 22.5811L18.8659 40.8232L9.30713 45.6967V49.6158L47.577 30.1161C47.6663 30.8012 47.7112 31.4913 47.7114 32.1822C47.7097 34.9242 46.9908 37.6181 45.6262 39.9964C44.2616 42.3747 42.2986 44.3547 39.9322 45.7398C37.5659 47.125 34.8783 47.8672 32.1365 47.8926C29.3946 47.918 26.6937 47.2259 24.3021 45.8849L24.11 45.9866L20.7189 47.7148C23.5838 49.7947 26.9678 51.0421 30.4971 51.3192C34.0265 51.5963 37.5637 50.8924 40.718 49.2851C43.8723 47.6778 46.5209 45.2299 48.3711 42.2116C50.2214 39.1934 51.2012 35.7224 51.2023 32.1822C51.2023 31.6887 51.1831 31.1952 51.1466 30.7075C51.0947 30.0207 51.2469 29.3338 51.5841 28.7332C51.9213 28.1326 52.4285 27.645 53.0419 27.3318L54.6933 26.4907V22.5811Z" fill="white"/>
</svg>

<svg xmlns="http://www.w3.org/2000/svg" width="64" height="65" fill="none" viewBox="0 0 64 65"><rect width="64" height="64" y=".304" fill="#000" rx="32"/><rect width="63" height="63" x=".5" y=".804" stroke="#fff" stroke-opacity=".15" rx="31.5"/><path fill="#fff" d="M16.433 34.23q-.134-1.023-.134-2.053a15.72 15.72 0 0 1 23.386-13.705l3.594-1.832a19.201 19.201 0 0 0-30.425 17.004 3.49 3.49 0 0 1-1.897 3.375l-1.65.841v3.923l45.386-23.127v-3.92zm38.26-11.649L18.866 40.823l-9.559 4.874v3.919l38.27-19.5q.135 1.028.134 2.066a15.72 15.72 0 0 1-23.409 13.703l-.192.102-3.391 1.728a19.202 19.202 0 0 0 30.428-17.008 3.495 3.495 0 0 1 1.895-3.375l1.651-.841z"/></svg>
